brandFactory_export/3.Masa/Tanto por ciento % _3Masa.svg

<?xml version="1.0" encoding="UTF-8"?>
<svg width="24px" height="24px" viewBox="0 0 24 24" version="1.1" xmlns="http://www.w3.org/2000/svg" xmlns:xlink="http://www.w3.org/1999/xlink">
    <title>3.Masa/Tanto por ciento % _3Masa</title>
    <g id="Symbols" stroke="none" stroke-width="1" fill="none" fill-rule="evenodd">
        <g id="3.Masa/Tanto-por-ciento-%-_3Masa" fill="#5CB615" fill-rule="nonzero">
            <path d="M16.5277311,6.84705882 C16.7596639,6.54789916 16.7092437,6.11428571 16.4067227,5.8789916 C16.1042017,5.64369748 15.6705882,5.69747899 15.4386555,6 L7.10588235,16.712605 C6.87058824,17.0117647 6.92436975,17.4487395 7.22689076,17.6806723 C7.3512605,17.7781513 7.50252101,17.8252101 7.64705882,17.8252101 C7.85210084,17.8252101 8.05714286,17.7344538 8.19159664,17.5596639 L16.5277311,6.84705882 Z M14.5983193,17.2 C15.8521008,17.2 16.5848739,16.5680672 16.5848739,15.2134454 C16.5848739,13.8588235 15.8521008,13.2268908 14.5983193,13.2268908 C13.3445378,13.2268908 12.6117647,13.8588235 12.6117647,15.2134454 C12.6117647,16.5680672 13.3411765,17.2 14.5983193,17.2 Z M9.02521008,6.57142857 C7.76806723,6.57142857 7.03865546,7.20672269 7.03865546,8.55798319 C7.03865546,9.9092437 7.76806723,10.5445378 9.02521008,10.5445378 C10.2789916,10.5445378 11.0117647,9.9092437 11.0117647,8.55798319 C11.0117647,7.20336134 10.2789916,6.57142857 9.02521008,6.57142857 Z M11.8084034,0 C19.2705882,0 23.6235294,3.76806723 23.6235294,11.8151261 C23.6235294,19.8621849 19.2705882,23.6235294 11.8084034,23.6235294 C4.34621849,23.6235294 0,19.8621849 0,11.8151261 C0,3.76806723 4.34621849,0 11.8084034,0 Z" id="Tanto-por-ciento-%-_3Masa"></path>
        </g>
    </g>
</svg>

<svg width="24" height="24" viewBox="0 0 24 24" xmlns="http://www.w3.org/2000/svg"><path d="M16.528 6.847A.69.69 0 0015.438 6L7.107 16.713a.687.687 0 00.541 1.112c.205 0 .41-.09.545-.265l8.336-10.713zM14.598 17.2c1.254 0 1.987-.632 1.987-1.987 0-1.354-.733-1.986-1.987-1.986-1.253 0-1.986.632-1.986 1.986 0 1.355.73 1.987 1.986 1.987zM9.025 6.571c-1.257 0-1.986.636-1.986 1.987s.73 1.987 1.986 1.987c1.254 0 1.987-.636 1.987-1.987 0-1.355-.733-1.987-1.987-1.987zM11.808 0c7.463 0 11.816 3.768 11.816 11.815S19.27 23.624 11.808 23.624C4.346 23.624 0 19.862 0 11.815 0 3.768 4.346 0 11.808 0z" fill="#5CB615" fill-rule="nonzero"/></svg>
